X: 6417
T: Castle, The
R: jig
M: 6/8
K: Adorian
|:B|cBA BAG|AGE DB,G,|~A,3 EDB,|DEG AGE|
c2A B/c/dB|AGE DB,G,|~A,3 E^CE|DB,G, A,2:|
|:B|cBA ~a3|bag edB|GBd ~g3|G,B,D GBG|
cBc d^cd|ede gab|age dBG|E^FG A2:|

